!!!OTL: 785b.
!!!ARE: Europa, Mitteleuropa, Deutschland, Hessen, Odenwald
!!!SCT: E0785A
!!!TXL: @@DE
!!!YEM: Copyright 1995, estate of Helmut Schaffrath.
**kern	**text
*ICvox	*
*M2/4	*
*k[b-]	*
*F:	*
!LO:TX:a:t=Näßig.	!
!LO:TX:a:t=Aus dem Odenwald.	!
!LO:TX:a:t=Aeltere Form.	!
{16f	Muß
16a	ich
=1	=1
8cc	denn,
16cc	muß
16cc	ich
8cc	denn,
16ffL	ʒum
16ddJ	.
=2	=2
8cc	Dörflein
16cc	.
16cc	.
8a}	hinaus,
{16dd	und
16dd	.
=3	=3
8.cc	du
16b-	mein
8g	Schatʒ
8cc	bleibſt
=4	=4
4a	hier!
8r}	.
{16f	Wann
16a	ich
=5	=5
8cc	komm,
16cc	wann
16cc	ich
8cc	komm,
16ffL	wann
16ddJ	.
=6	=6
8cc	ich
16cc	wiedrum
16cc	.
8a}	komm,
{16dd	kehr
16dd	ich
=7	=7
8.cc	ein,
16b-	mein
8g	Schatʒ
8cc	bei
=8	=8
4a	dir.
8r}	.
{16cc	Kann
16cc	ich
=9	=9
8g	gleich
8g	nicht
8g	all-
8cc	ʒeit
=10	=10
8a	bei
8a	dir
8a}	ſein,
{16f	hab
16f	ich
=11	=11
8.b-	doch
16dd	mein
16ffL	Freud
16eeJ	.
16ffL	an
16ddJ	.
=12	=12
4cc	dir;
8r}	.
{16f	wann
16a	ich
=13	=13
8cc	komm,
16cc	wann
16cc	ich
8cc	komm,
(16ff	wann
16dd)	ich
=14	=14
8cc	wie-
8cc	-drum
8a}	komm,
{16dd	kehr
16dd	ich
=15	=15
8.cc	ein
16b-	mei
8g	Schatʒ,
8cc	bei
=16	=16
4a	dir.
8r}	.
==	==
!!!AGN: Abschieds - Lied, Liebe
!!!ONB: ESAC (Essen Associative Code) Database: ERK2
!!!AMT: simple duple
!!!AIN: vox
!!!EED: Helmut Schaffrath
!!!EEV: 1.0
!!!GTL: Abschieds- und Wanderlieder
!!!URL-scan: https://rosdok.uni-rostock.de/mcrviewer/recordIdentifier/rosdok_ppn745177662/iview2/phys_0591.iview2?x=108.54425050466148&y=2069.019851579331&scale=0.7029437510502773&rotation=0&layout=singlePageLayout
!!!ENC: Anna Maria Matuszewska
!!!EEV: 2024/12/17
*-	*-
